source/icons/menu-cross.svg

<svg width="12" height="12" viewBox="0 0 12 12" fill="none" xmlns="http://www.w3.org/2000/svg">
<path fill-rule="evenodd" clip-rule="evenodd" d="M5.02548 6L0 0.974524L0.974524 0L6 5.02548L11.0255 0L12 0.974524L6.97452 6L12 11.0255L11.0255 12L6 6.97452L0.974524 12L0 11.0255L5.02548 6Z" fill="#333333"/>
</svg>

<svg viewBox="0 0 12 12" fill="none" xmlns="http://www.w3.org/2000/svg"><path fill-rule="evenodd" clip-rule="evenodd" d="m5.03 6-5.03-5.03.97-.97 5.03 5.03 5.03-5.03.97.97-5.03 5.03 5.03 5.03-.97.97-5.03-5.03-5.03 5.03-.97-.97 5.03-5.03Z" fill="#333"/></svg>
